!!!COM: Music21
!!!OTL: barndance_Rosalie--The-Prairie-Flower
!!!OMV: barndance_Rosalie--The-Prairie-Flower
**kern
*clefG2
*k[f#]
*G:
*M4/4
=1
8.bL
16aJk
8.gL
16f#Jk
4g
4e
=
8.dL
16eJk
16dKL
8.BJ
2d
=
8.bL
16aJk
8.gL
16f#Jk
4g
4b
=
4a
4e
2a
=
8.bL
16aJk
8.gL
16f#Jk
4g
4e
=
8.dL
16eJk
16dKL
8.BJ
2d
!!linebreak:original
=
8.eL
16f#Jk
8.gL
16aJk
4b
4a
=
4g
4d
2g
=||
*M4/4
8.bL
16aJk
8.gL
16f#Jk
4g
4e
=
8.dL
16eJk
16dKL
8.BJ
2d
=
8.bL
16aJk
8.gL
16f#Jk
4g
4b
=
4a
4e
2a
!!linebreak:original
=
8.bL
16aJk
8.gL
16f#Jk
4g
4e
=
8.dL
16eJk
16dKL
8.BJ
2d
=
8.eL
16f#Jk
8.gL
16aJk
4b
4a
=
4g
4d
2g
=||
4a
8.gL
16aJk
4b
4dd
=
4a
8.gL
16aJk
2b
=
4g
8.f#L
16gJk
4a
4cc
!!linebreak:original
=
4g
8.f#L
16gJk
2a
=
8.bL
16aJk
8.gL
16f#Jk
4g
4e
=
8.dL
16eJk
16dKL
8.BJ
2d
=
8.eL
16f#Jk
8.gL
16aJk
4b
4a
=
[2g
2g]
=||
4a
8.gL
16aJk
4b
4dd
=
4a
8.gL
16aJk
2b
!!linebreak:original
=
4g
8.f#L
16gJk
4a
4cc
=
4g
8.f#L
16gJk
2a
=
8.bL
16aJk
8.gL
16f#Jk
4g
4e
=
8.dL
16eJk
16dKL
8.BJ
2d
=
8.eL
16f#Jk
8.gL
16aJk
4b
4a
=
[2g
2g]
!!linebreak:original
=||
16bbLL
16ccc
16bb
16aaJJ
8.ggL
16ff#Jk
4gg
12.eeL
24ff#K
12eeJ
=
8.ddL
16eeJk
16ddKL
8.bJ
2dd
=
16bbLL
16ccc
16bb
16aaJJ
8.ggL
16ff#Jk
4gg
12.bbL
24cccK
12bbJ
=
12.aaL
24bbK
12aaJ
4ee
12aaL
24bbK
[12.aaJ
4aa]
!!linebreak:original
=
16bbLL
16ccc
16bb
16aaJJ
16ggLL
16aa
16gg
16ff#JJ
4gg
12.eeL
24ff#K
12eeJ
=
8.ddL
16eeJk
16ddKL
8.bJ
2dd
=
8ee'L
8ff#'J
8gg'L
8aa'J
12.bbL
24cccK
12bbJ
12.aaL
24bbK
12aaJ
=
4gg
8ddL
8bJ
2g
!!linebreak:original
=||
16bbLL
16ccc
16bb
16aaJJ
8.ggL
16ff#Jk
4gg
12.eeL
24ff#K
12eeJ
=
8.ddL
16eeJk
16ddKL
8.bJ
2dd
=
16bbLL
16ccc
16bb
16aaJJ
8.ggL
16ff#Jk
4gg
12.bbL
24cccK
12bbJ
=
12.aaL
24bbK
12aaJ
4ee
12aaL
24bbK
[12.aaJ
4aa]
!!linebreak:original
=
16bbLL
16ccc
16bb
16aaJJ
16ggLL
16aa
16gg
16ff#JJ
4gg
12.eeL
24ff#K
12eeJ
=
8.ddL
16eeJk
16ddKL
8.bJ
2dd
=
8ee'L
8ff#'J
8gg'L
8aa'J
12.bbL
24cccK
12bbJ
12.aaL
24bbK
12aaJ
=
[2gg
2gg]
!!linebreak:original
=||
12.aL
24bK
12aJ
8.gL
16aJk
4b
8.ccL
16bJk
=
12.aL
24bK
12aJ
8.gL
16aJk
2b
=
4g
8.f#L
16gJk
4a
4cc
=
4g
8.f#L
16gJk
2a
=
16bLL
16cc
16b
16aJJ
8.ggL
16ff#Jk
4gg
12.eeL
24ff#K
12eeJ
!!pagebreak:original
=
8.ddL
16eeJk
16ddKL
8.bJ
2dd
=
8ee'L
8ff#'J
8gg'L
8aa'J
12.bL
24ccK
12bJ
12.aL
24bK
12aJ
=
[2g
2g]
=
12.aL
24bK
12aJ
8.gL
16aJk
12.bL
24ccK
12bJ
4dd
=
12.aL
24bK
12aJ
8.gL
16aJk
2b
=
4g
8.f#L
16gJk
4a
4cc
!!linebreak:original
=
12.gL
24aK
12gJ
8.f#L
16gJk
2a
=
16bLL
16cc
16b
16aJJ
8.gL
16f#Jk
4g
12.eeL
24ff#K
12eeJ
=
8.ddL
16eeJk
16ddKL
8.bJ
2dd
=
8ee'L
8ff#'J
8g'L
8a'J
12.bL
24ccK
12bJ
12.aL
24bK
12aJ
=
[2g
2g]
=||
*-
